X:1
T: Humors of Donnybrook
C:
R:Jig
Q:180
K:A
M:6/8
L:1/16
a4A2 A2G2A2|F2A2A2 E2A2A2|a4A2 A2G2A2|F2B2A2 G2F2E2|
a4A2 A2G2A2|F2A2A2 E2A2A2|F2A2A2 B2A2B2|c2A2A2 A6|
|:A2c2e2 e2c2A2|A2c2e2 e2c2A2|A2c2e2 e2c2A2|d2c2d2 B4z2|
A2c2e2 e2c2A2|A2c2e2 e2f2g2|a2g2f2 e2d2c2|d2c2d2 B6:|
a4A2 A2G2A2|F2A2A2 E2A2A2|a4A2 A2G2A2|F2B2A2 G2F2E2|
a4A2 A2G2A2|F2A2A2 E2A2A2|F2A2A2 B2A2B2|c2A2A2 A6||
